Numix-Light/22/status/yd-busy2.svg

<?xml version="1.0" encoding="UTF-8" standalone="no"?>
<!-- Created with Inkscape (http://www.inkscape.org/) -->

<svg
   xmlns:dc="http://purl.org/dc/elements/1.1/"
   xmlns:cc="http://creativecommons.org/ns#"
   xmlns:rdf="http://www.w3.org/1999/02/22-rdf-syntax-ns#"
   xmlns:svg="http://www.w3.org/2000/svg"
   xmlns="http://www.w3.org/2000/svg"
   xmlns:sodipodi="http://sodipodi.sourceforge.net/DTD/sodipodi-0.dtd"
   xmlns:inkscape="http://www.inkscape.org/namespaces/inkscape"
   id="svg2"
   version="1.1"
   inkscape:version="0.91 r"
   width="22"
   height="22"
   viewBox="0 0 22 22"
   sodipodi:docname="yd-busy2.svg">
  <metadata
     id="metadata8">
    <rdf:RDF>
      <cc:Work
         rdf:about="">
        <dc:format>image/svg+xml</dc:format>
        <dc:type
           rdf:resource="http://purl.org/dc/dcmitype/StillImage" />
        <dc:title />
      </cc:Work>
    </rdf:RDF>
  </metadata>
  <defs
     id="defs6">
    <clipPath
       id="clipPath-408241621">
      <g
         id="g3616"
         transform="translate(0,-1004.3622)">
        <path
           id="path3618"
           transform="matrix(15.333333,0,0,11.5,414.99999,878.8622)"
           d="m -24,13 c 0,1.105 -0.672,2 -1.5,2 -0.828,0 -1.5,-0.895 -1.5,-2 0,-1.105 0.672,-2 1.5,-2 0.828,0 1.5,0.895 1.5,2 z"
           inkscape:connector-curvature="0"
           style="fill:#1890d0" />
      </g>
    </clipPath>
    <clipPath
       id="clipPath-408241621-2">
      <g
         id="g3616-2"
         transform="translate(0,-1004.3622)">
        <path
           id="path3618-9"
           transform="matrix(15.333333,0,0,11.5,414.99999,878.8622)"
           d="m -24,13 c 0,1.105 -0.672,2 -1.5,2 -0.828,0 -1.5,-0.895 -1.5,-2 0,-1.105 0.672,-2 1.5,-2 0.828,0 1.5,0.895 1.5,2 z"
           inkscape:connector-curvature="0"
           style="fill:#1890d0" />
      </g>
    </clipPath>
    <clipPath
       id="clipPath-408241621-2-6">
      <g
         id="g3616-2-4"
         transform="translate(0,-1004.3622)">
        <path
           id="path3618-9-4"
           transform="matrix(15.333333,0,0,11.5,414.99999,878.8622)"
           d="m -24,13 c 0,1.105 -0.672,2 -1.5,2 -0.828,0 -1.5,-0.895 -1.5,-2 0,-1.105 0.672,-2 1.5,-2 0.828,0 1.5,0.895 1.5,2 z"
           inkscape:connector-curvature="0"
           style="fill:#1890d0" />
      </g>
    </clipPath>
  </defs>
  <sodipodi:namedview
     pagecolor="#ffffff"
     bordercolor="#666666"
     borderopacity="1"
     objecttolerance="10"
     gridtolerance="10"
     guidetolerance="10"
     inkscape:pageopacity="0"
     inkscape:pageshadow="2"
     inkscape:window-width="1366"
     inkscape:window-height="747"
     id="namedview4"
     showgrid="true"
     showguides="false"
     inkscape:zoom="22.627416"
     inkscape:cx="11.990585"
     inkscape:cy="12.354745"
     inkscape:window-x="0"
     inkscape:window-y="21"
     inkscape:window-maximized="1"
     inkscape:current-layer="svg2">
    <inkscape:grid
       type="xygrid"
       id="grid4142" />
  </sodipodi:namedview>
  <path
     style="opacity:1;fill:#353535;fill-opacity:0.94117647;fill-rule:nonzero;stroke:none;stroke-width:1;stroke-linecap:square;stroke-linejoin:round;stroke-miterlimit:4;stroke-dasharray:none;stroke-dashoffset:0;stroke-opacity:1"
     d="M 11.951172 6.2226562 L 11.929688 6.625 C 12.727593 6.8229089 13.45224 7.2334656 14.035156 7.7988281 C 14.186091 7.7778783 14.330378 7.7622297 14.478516 7.7441406 C 14.287951 7.5323049 14.078819 7.3410114 13.857422 7.1660156 C 13.798433 7.1372387 13.736247 7.1156571 13.677734 7.0859375 C 13.349484 6.9192149 13.135472 6.7663215 12.720703 6.5332031 C 12.632673 6.4837267 12.524495 6.4249724 12.423828 6.3691406 C 12.268308 6.3141472 12.11172 6.2618416 11.951172 6.2226562 z M 9.140625 6.3027344 L 8.1523438 6.328125 C 8.1246353 6.3500718 8.0978052 6.3680632 8.0703125 6.390625 L 8.3378906 6.7363281 L 7.8203125 7.2011719 C 7.0608241 7.8860587 6.5592792 8.8214862 6.3496094 9.8359375 C 6.481332 9.7835915 6.6191867 9.7329639 6.7539062 9.6816406 C 6.9701796 8.9030233 7.3845997 8.1856171 7.9882812 7.6191406 L 8.5742188 7.0683594 L 8.9238281 7.4980469 L 9.140625 6.3027344 z M 10.375 7.9042969 L 10.255859 8.5644531 C 10.83992 8.4116973 11.412958 8.2794408 11.976562 8.1621094 C 11.696056 8.0473027 11.399952 7.9761745 11.095703 7.9550781 L 10.375 7.9042969 z M 16.822266 8.3535156 C 16.769587 8.3545638 16.709559 8.3617317 16.65625 8.3632812 C 16.761378 8.5937919 16.865822 8.8256647 16.945312 9.0703125 C 17.430671 10.564091 17.337595 12.11622 16.787109 13.490234 C 19.544736 12.190212 21.253505 10.7284 20.96875 9.6542969 C 20.738921 8.7824483 19.221652 8.3057902 16.822266 8.3535156 z M 15.025391 8.4804688 C 14.902323 8.4936412 14.773441 8.5140476 14.648438 8.5292969 C 14.874488 8.8672972 15.06078 9.2366465 15.191406 9.6386719 C 15.742576 11.334999 15.311808 13.173114 14.042969 14.371094 L 13.65625 14.738281 C 13.9741 14.632578 14.266726 14.517715 14.570312 14.40625 C 15.692662 13.118047 16.08357 11.275147 15.517578 9.5332031 C 15.394818 9.1553866 15.224626 8.8068134 15.025391 8.4804688 z M 12.931641 8.7929688 C 12.042006 8.956409 11.134181 9.150143 10.216797 9.3984375 C 10.175729 9.4095521 10.138567 9.4223643 10.097656 9.4335938 L 9.8222656 10.960938 L 8.875 9.8046875 C 8.6613748 9.8718978 8.4344799 9.9319704 8.2265625 10.001953 C 8.0408973 10.599186 8.0286615 11.259305 8.2363281 11.898438 C 8.6339591 13.12222 9.6790065 13.959641 10.882812 14.056641 L 11.611328 14.115234 L 11.605469 14.224609 L 12.228516 11.054688 L 13.523438 12.636719 C 13.953619 11.905118 14.055263 11.00094 13.763672 10.103516 C 13.596938 9.5903628 13.301697 9.1463529 12.931641 8.7929688 z M 6.5996094 10.605469 C 6.4804931 10.653228 6.3623778 10.699563 6.2460938 10.748047 C 6.2309561 11.321785 6.2986475 11.903151 6.4824219 12.46875 C 7.0257791 14.141031 8.344217 15.317657 9.921875 15.75 C 9.9550297 15.742974 9.9901963 15.733713 10.023438 15.726562 L 10.041016 15.378906 C 8.5453912 14.994998 7.3070365 13.891319 6.8105469 12.363281 C 6.6224333 11.784327 6.5605073 11.187727 6.5996094 10.605469 z M 4.7675781 11.416016 C 2.263192 12.662743 0.76141898 14.031016 1.03125 15.048828 C 1.3392557 16.217098 3.9102753 16.592958 7.3574219 16.173828 C 6.3073095 15.374804 5.4878569 14.258788 5.0566406 12.931641 C 4.8941219 12.431459 4.8048358 11.923086 4.7675781 11.416016 z M 13.085938 14.470703 L 12.994141 14.9375 C 13.120201 14.898389 13.250847 14.862369 13.375 14.822266 L 13.085938 14.470703 z "
     id="path4138" />
  <g
     id="g4263"
     transform="matrix(0.42307692,0,0,0.42307692,6.3606939,7.5192308)">
    <g
       style="fill:#353535;fill-opacity:1"
       id="g3628"
       transform="matrix(0.34782609,0,0,0.34782609,2.6435901,2.6456559)" />
    <g
       transform="matrix(0.49988464,0,0,0.49988464,-37.411065,7.9950011)"
       clip-path="url(#clipPath-408241621)"
       id="g3650">
      <!-- color: #004794 -->
      <g
         id="g3652" />
    </g>
  </g>
  <g
     id="g4174"
     transform="matrix(0.30901699,0.95105652,-0.95105652,0.30901699,18.062435,-2.860809)">
    <g
       style="fill:#353535;fill-opacity:1"
       id="g3628-8"
       transform="matrix(0.34782609,0,0,0.34782609,2.6435901,2.6456559)">
      <path
         inkscape:connector-curvature="0"
         id="path3630"
         transform="matrix(2.875,0,0,2.875,97.067647,-33.481261)"
         d="m -25.40625,14.5 c 2.303968,0 4.367461,1.302964 5.28125,3.3125 l 1.21875,-0.46875 -1,3.46875 -3.3125,-1.84375 1.28125,-0.5 c -0.620857,-1.310198 -1.9541,-2.125 -3.46875,-2.125 -1.572637,0 -2.996131,0.939574 -3.5625,2.34375 L -30.75,18 c 0.844805,-2.103515 2.984794,-3.5 5.34375,-3.5 z m -5.5,4.71875 3.3125,1.78125 -1.28125,0.5 c 0.613358,1.304699 1.964097,2.15625 3.46875,2.15625 1.575636,0 2.978635,-0.910324 3.5625,-2.3125 l 1.78125,0.6875 c -0.876798,2.103015 -2.979296,3.46875 -5.34375,3.46875 -2.292471,0 -4.386956,-1.339213 -5.28125,-3.34375 l -1.21875,0.4375 z"
         style="fill:#353535;fill-opacity:1"
         sodipodi:nodetypes="scccccsccscccsccsccc" />
    </g>
    <g
       transform="matrix(0.49988464,0,0,0.49988464,-37.411065,7.9950011)"
       clip-path="url(#clipPath-408241621-2)"
       id="g3650-3">
      <!-- color: #004794 -->
      <g
         id="g3652-1" />
    </g>
  </g>
  <g
     id="g4174-4"
     style="stroke:#000000;stroke-width:1.5;stroke-miterlimit:4;stroke-dasharray:none;stroke-opacity:1"
     transform="matrix(0.30901699,0.95105652,-0.95105652,0.30901699,14.828732,6.6023939)">
    <g
       style="fill:#353535;fill-opacity:1;stroke:#000000;stroke-width:4.3125;stroke-miterlimit:4;stroke-dasharray:none;stroke-opacity:1"
       id="g3628-8-4"
       transform="matrix(0.34782609,0,0,0.34782609,2.6435901,2.6456559)" />
    <g
       transform="matrix(0.49988464,0,0,0.49988464,-37.411065,7.9950011)"
       clip-path="url(#clipPath-408241621-2-6)"
       id="g3650-3-9"
       style="stroke:#000000;stroke-width:3.00069237;stroke-miterlimit:4;stroke-dasharray:none;stroke-opacity:1">
      <!-- color: #004794 -->
      <g
         id="g3652-1-7"
         style="stroke:#000000;stroke-width:3.00069237;stroke-miterlimit:4;stroke-dasharray:none;stroke-opacity:1" />
    </g>
  </g>
</svg>

<!-- Created with Inkscape (http://www.inkscape.org/) -->
<svg xmlns="http://www.w3.org/2000/svg" viewBox="0 0 22 22">
 <path d="m 11.951 6.223 l -0.021 0.402 c 0.798 0.198 1.523 0.608 2.105 1.174 c 0.151 -0.021 0.295 -0.037 0.443 -0.055 c -0.191 -0.212 -0.4 -0.403 -0.621 -0.578 c -0.059 -0.029 -0.121 -0.05 -0.18 -0.08 c -0.328 -0.167 -0.542 -0.32 -0.957 -0.553 c -0.088 -0.049 -0.196 -0.108 -0.297 -0.164 c -0.156 -0.055 -0.312 -0.107 -0.473 -0.146 z m -2.811 0.08 l -0.988 0.025 c -0.028 0.022 -0.055 0.04 -0.082 0.063 l 0.268 0.346 l -0.518 0.465 c -0.759 0.685 -1.261 1.62 -1.471 2.635 c 0.132 -0.052 0.27 -0.103 0.404 -0.154 c 0.216 -0.779 0.631 -1.496 1.234 -2.063 l 0.586 -0.551 l 0.35 0.43 l 0.217 -1.195 z m 1.234 1.602 l -0.119 0.66 c 0.584 -0.153 1.157 -0.285 1.721 -0.402 c -0.281 -0.115 -0.577 -0.186 -0.881 -0.207 l -0.721 -0.051 z m 6.447 0.449 c -0.053 0.001 -0.113 0.008 -0.166 0.01 c 0.105 0.231 0.21 0.462 0.289 0.707 c 0.485 1.494 0.392 3.046 -0.158 4.42 c 2.758 -1.3 4.466 -2.762 4.182 -3.836 c -0.23 -0.872 -1.747 -1.349 -4.146 -1.301 z m -1.797 0.127 c -0.123 0.013 -0.252 0.034 -0.377 0.049 c 0.226 0.338 0.412 0.707 0.543 1.109 c 0.551 1.696 0.12 3.534 -1.148 4.732 l -0.387 0.367 c 0.318 -0.106 0.61 -0.221 0.914 -0.332 c 1.122 -1.288 1.513 -3.131 0.947 -4.873 c -0.123 -0.378 -0.293 -0.726 -0.492 -1.053 z m -2.094 0.313 c -0.89 0.163 -1.797 0.357 -2.715 0.605 c -0.041 0.011 -0.078 0.024 -0.119 0.035 l -0.275 1.527 l -0.947 -1.156 c -0.214 0.067 -0.441 0.127 -0.648 0.197 c -0.186 0.597 -0.198 1.257 0.01 1.896 c 0.398 1.224 1.443 2.061 2.646 2.158 l 0.729 0.059 l -0.006 0.109 l 0.623 -3.17 l 1.295 1.582 c 0.43 -0.732 0.532 -1.636 0.24 -2.533 c -0.167 -0.513 -0.462 -0.957 -0.832 -1.311 z m -6.332 1.813 c -0.119 0.048 -0.237 0.094 -0.354 0.143 c -0.015 0.574 0.053 1.155 0.236 1.721 c 0.543 1.672 1.862 2.849 3.439 3.281 c 0.033 -0.007 0.068 -0.016 0.102 -0.023 l 0.018 -0.348 c -1.496 -0.384 -2.734 -1.488 -3.23 -3.02 c -0.188 -0.579 -0.25 -1.176 -0.211 -1.758 z m -1.832 0.811 c -2.504 1.247 -4.01 2.615 -3.736 3.633 c 0.308 1.168 2.879 1.544 6.326 1.125 c -1.05 -0.799 -1.87 -1.915 -2.301 -3.242 c -0.163 -0.5 -0.252 -1.01 -0.289 -1.516 z m 8.318 3.055 l -0.092 0.467 c 0.126 -0.039 0.257 -0.075 0.381 -0.115 l -0.289 -0.352 z" style="fill:#353535;opacity:1;fill-opacity:0.941;stroke:none;fill-rule:nonzero"/>
 <g transform="matrix(0.42307692,0,0,0.42307692,6.3606939,7.5192308)">
  <g transform="matrix(0.49988464,0,0,0.49988464,-37.411065,7.9950011)">
   <!-- color: #004794 -->
  </g>
 </g>
 <g transform="matrix(0.30901699,0.95105652,-0.95105652,0.30901699,18.062435,-2.860809)">
  <g transform="matrix(0.34782609,0,0,0.34782609,2.6435901,2.6456559)" style="fill:#353535;fill-opacity:1">
   <path transform="matrix(2.875,0,0,2.875,97.067647,-33.481261)" d="m -25.406 14.5 c 2.304 0 4.367 1.303 5.281 3.313 l 1.219 -0.469 -1 3.469 -3.313 -1.844 1.281 -0.5 c -0.621 -1.31 -1.954 -2.125 -3.469 -2.125 -1.573 0 -2.996 0.94 -3.563 2.344 l -1.781 -0.688 c 0.845 -2.104 2.985 -3.5 5.344 -3.5 z m -5.5 4.719 3.313 1.781 -1.281 0.5 c 0.613 1.305 1.964 2.156 3.469 2.156 1.576 0 2.979 -0.91 3.563 -2.313 l 1.781 0.688 c -0.877 2.103 -2.979 3.469 -5.344 3.469 -2.292 0 -4.387 -1.339 -5.281 -3.344 l -1.219 0.438 z"/>
  </g>
  <g transform="matrix(0.49988464,0,0,0.49988464,-37.411065,7.9950011)">
   <!-- color: #004794 -->
  </g>
 </g>
 <g transform="matrix(0.30901699,0.95105652,-0.95105652,0.30901699,14.828732,6.6023939)" style="stroke-dasharray:none;stroke-opacity:1;stroke-miterlimit:4;stroke:#000;stroke-width:1.5">
  <g transform="matrix(0.49988464,0,0,0.49988464,-37.411065,7.9950011)" style="stroke-width:3">
   <!-- color: #004794 -->
  </g>
 </g>
</svg>
